X: 4106
T: The CADGERS OF THE CANONGATE
R: Strathspey.
%R: strathspey
B: James Kerr "Merry Melodies" v.4 p.13 #106
Z: 2016 John Chambers <jc:trillian.mit.edu>
M: C
L: 1/8
K: G
uA |\
G>BG>B (de/f/) g>e | d>B g>B A/A/A A>B |\
G>BG>B (de/f/) g>e | d>Bg>B G/G/G G ::\
g |\
b>ag>f g>ed>B |
G>Bg>B A/A/A A>g |\
[1 b>ag>f g>ed>B | G>Bg>B G/G/G G :|\
[2 (3bag (3agf (3gfe (3edB | d>Bg>B G/G/G G |]

%%sep 1 1 500
%%sep 1 1 500

